X:1
T:B
T:B
L:1/8
M:4/4
I:linebreak $
K:G
V:1 treble nm="Voice" snm="Voice"
V:1
 af | ge c2 A2 a2 | ge c A2 A2 B A | dABA dABA | dA B d2 a2 f | ge c A2 a2 f | ge c A2 A2 BA |$ %7
 =d2 _B2 A2 =F2 | D2 d2 c2 =c2 |"G" _BABc dcde |"D" =fe f _b2 a2 f- | fe =f a2 f e2 | d6 ::$ z A2 | %14
 AB^cA BcAB | ^cA B c2 A2 BA |"D" dABA dABA | dA B d2 d3 | AB^cA BcAB | ^cA B c2 A2 B A |$ %20
 d2 B2 A2 F2 | D2 d2 ^c2 =c2 |"G" B2 A2 B2 ^c2 |"D" fe f b2 a2 f- | fe f a2 f e2 | d6 :| %26
